X: 1
T: Patrick Sarsfild
B: A COLECTION of the most Celebrated Irish Tunes2 p.6c
M: C|
L: 1/8
K: Gdor
[| G2G2 TB2(AG) | TB2c2 d2(ef) | g2g2 g2(fe) |\
Tf2(dc) B2AG | Tf2(ed) (ef)g2 | f2(dc) B2c2 |\
d2d2 dfed | cdcB c2d2 | (cB)(AG) G4 |]
